X: 12
T: Jenny's Welcome To Charlie
Z: JACKB
S: https://thesession.org/tunes/370#setting46695
R: reel
M: 4/4
L: 1/8
K: Ddor
D3A AGEF|GEcE dEcE|D3A AGEG|(3AcA AG EADA|
DADA AGEF|GE E2 cE E2|D3A AGEG|A3G EADA|
D3A AGEF|GEcE dEcE|D3A AGEG|{d}c2 cG EFGE|
D3A AGEF|(3GFE cE dEcE|D3A AGEG|A3G EADA||
|:d3A {aa}^dA=dA|c3A {aa}^dAcA|{aa}^dA=dA {aa}^dA=dA|eaag eddA|
{aa}^dA=dA {aa}^dA=dA|c3A {aa}^dAcA|GAcd (3gfe dc|(3AcA AG EFGE||
|:faag fedf|efgf edcg|faag fedf|eaag eddg|
faag fedf|efge (3gfe dA|GAcd (3gfe dc|(3AcA AG EFGE||
|:d2 (3gfe dcAB|cAdB cAGB|Addc Ad d2|eaag eddA|
{aa}^dA=dA {aa}^dc=dA|cAdB cAGE|D2 (3E^FG A2 GE|(3AcA GA EF D2||

